!!!COM: Hummel, Johann Nepomuk
!!!CDT: 1778/11/14-1837/10/17
!!!OTL: Prelude in E-flat Major, Op. 67, No. 19
!!!OPS: Op. 67
!!!ONM: No. 19
!!!OMD: Allegro comodo.
!!!ODT: 1815
!!!AIN: piano
**kern	**kern	**dynam
*staff2	*staff1	*staff1/2
*Ipiano	*Ipiano	*
*clefF4	*clefG2	*
*k[b-e-a-]	*k[b-e-a-]	*
*E-:	*E-:	*
*met(c)	*met(c)	*
*M4/4	*M4/4	*
*MM152	*MM152	*
=1-	=1-	=1-
*^	*	*
*ped	*	*	*
!	!	!	!LO:DY:b=2
4r	N(>[1EE-	2r	p
[[<12GGL	.	.	.
[[<12BB-	.	.	.
[<12E-J	.	.	.
!	!	!	!LO:DY:rj
!	!	!LO:TUP:b	!
2GG__< 2BB-__< 2E-__	.	12GL	p
.	.	12B-	.
.	.	12e-J	.
!	!	!LO:TUP:b	!
.	.	12gL>	.
.	.	12b-	.
.	.	12ee-J	.
*Xped	*	*	*
*v	*v	*	*
=2	=2	=2
*	*Xtuplet	*
1EE-]] 1GG] 1BB-] 1E-]	12ggL	.
.	12ff#	.
.	12ggJ	.
.	12ddL	.
.	12ee-	.
.	12anJ	.
.	12b-L	.
.	12f#	.
.	12gJ	.
.	12dL	.
.	12e-	.
.	12B-JN)	.
=3	=3	=3
1E- 1F 1A- 1c-	12r	.
.	(12aa-L	.
.	12ddJ	.
.	12ffnL	.
.	12cc-	.
.	12ddJ	.
.	12a-L	.
.	12cc-	.
.	12fJ	.
.	12a-L	.
.	12d	.
.	12fJ)	.
!!LO:LB:g=z
=4	=4	=4
2E- 2G 2B- 2d-	12r	.
.	(12bb-L	.
.	12dd-J	.
.	12ggL	.
.	12b-	.
.	12dd-J)	.
2En 2G 2B- 2c	12r	.
.	(12cccL	.
.	12ggJ	.
.	12bb-L	.
.	12cc	.
.	12ggJ)	.
=5	=5	=5
2F 2An 2c	12r	.
.	(12cccL	<
.	12ggJ	.
.	12aanL	.
.	12cc	.
.	12ffJ)	.
2BBn 2D 2F 2A-	12r	.
.	(12dddL	.
.	12ffJ	.
.	12aa-L	.
.	12dd	.
.	12ffJ)	.
=6	=6	=6
!M7/4	!M7/4	!M7/4
*	*tuplet	*
*	*Xbrackettup	*
*ped	*	*
1Cz 1E-z 1G-z 1Anz	12r	.
.	(12eee-L	.
.	12ee-J)	.
.	(12cccL	.
.	12cc)	.
.	(12aanJ	.
.	12anL)	.
.	(12gg-	.
.	12g-J)	.
.	(12ee-L	.
.	12e-)	.
.	(12ccJ	.
*	*Xtuplet	*
2.ryy	12cL)	.
*Xped	*	*
.	(12an	.
.	12An<J)	.
.	(12g-L	.
.	12G-<)	.
.	(12e-J	.
.	12E-<L)	.
.	(<12c<	.
.	12C<J)	.
!!LO:LB:g=z
=7	=7	=7
!*M9/4	!*M9/4	!*M9/4
!	!	!LO:DY:b=2:rj
[2BBB-	4r<	f
.	[4BB-<	f
8BBB-L]	8BB-</L]	.
!	!LO:TX:i:b:t=assai allegro	!
(16CCL	(16C<L/	.
16DD	16D</	.
16EE-	16E-</	.
16FF	16F</	.
16GGn	16Gn</	.
16AA-X	16A-X</	.
16BB-	16B-</	.
16C	16c</	.
16D	16d\	.
16E-	16e-\	.
16F	16f\	.
16G	16g\	.
16A-	16a-\	.
16B-	16b-\	.
*clefG2	*	*
16c	16cc	.
16d	16dd	.
16e-	16ee-	.
16f	16ff	.
16g	16gg	.
16a-	16aa-	.
16b-	16bb-	.
16cc	16ccc	.
16dd	16ddd	.
16ee-	16eee-	.
16ffJJ	16fffJJ	.
=8	=8	=8
!M4/4	!M4/4	!M4/4
*ped	*	*
8gg`)	(16gggLL)	.
.	16eee-	.
8r	16bb-	.
.	16ggJJ	.
4r	8bbb-`)	.
.	8r	.
*Xped	*	*
4r	4r	.
*clefF4	*	*
!	!	!LO:DY:rj
4BB-` 4D` 4F` 4B-`	4f` 4a-` 4b-` 4dd`	ff
=9	=9	=9
*ped	*	*
2EE- 2GG 2BB- 2E-	2e- 2g 2b- 2ee-	.
*Xped	*	*
2r	2r	.
==	==	==
*-	*-	*-
!!!ENC: Craig Stuart Sapp
!!!EED: 2008/06/13
!!!EEV: 2008/06/13
!!!YEC: Copyright 2008 by Craig Stuart Sapp
!!!YEN: United States of America
!!!RDF**kern: N = linked
!!!RDF**kern: > = above
!!!RDF**kern: < = below
